src/assets/footer/github.svg

<svg width="58" height="58" viewBox="0 0 58 58" fill="none" xmlns="http://www.w3.org/2000/svg">
<rect x="0.5" y="0.5" width="57" height="57" rx="9.5" stroke="#A7A7A7"/>
<path d="M29 13C20.164 13 13 20.164 13 29C13 36.4973 18.1627 42.7707 25.1227 44.5067C25.048 44.2907 25 44.04 25 43.7293V40.9947C24.3507 40.9947 23.2627 40.9947 22.9893 40.9947C21.8947 40.9947 20.9213 40.524 20.4493 39.6493C19.9253 38.6773 19.8347 37.1907 18.536 36.2813C18.1507 35.9787 18.444 35.6333 18.888 35.68C19.708 35.912 20.388 36.4747 21.028 37.3093C21.6653 38.1453 21.9653 38.3347 23.156 38.3347C23.7333 38.3347 24.5973 38.3013 25.4107 38.1733C25.848 37.0627 26.604 36.04 27.528 35.5573C22.2 35.0093 19.6573 32.3587 19.6573 28.76C19.6573 27.2107 20.3173 25.712 21.4387 24.4493C21.0707 23.196 20.608 20.64 21.58 19.6667C23.9773 19.6667 25.4267 21.2213 25.7747 21.6413C26.9693 21.232 28.2813 21 29.66 21C31.0413 21 32.3587 21.232 33.556 21.644C33.9 21.2267 35.3507 19.6667 37.7533 19.6667C38.7293 20.6413 38.2613 23.208 37.8893 24.4587C39.004 25.7187 39.66 27.2133 39.66 28.76C39.66 32.356 37.1213 35.0053 31.8013 35.556C33.2653 36.32 34.3333 38.4667 34.3333 40.084V43.7293C34.3333 43.868 34.3027 43.968 34.2867 44.0867C40.5213 41.9013 45 35.9813 45 29C45 20.164 37.836 13 29 13Z" fill="white"/>
</svg>

<svg xmlns="http://www.w3.org/2000/svg" width="58" height="58" fill="none" viewBox="0 0 58 58"><rect width="57" height="57" x=".5" y=".5" stroke="#a7a7a7" rx="9.5"/><path fill="#fff" d="M29 13c-8.836 0-16 7.164-16 16 0 7.497 5.163 13.77 12.123 15.507a2.3 2.3 0 0 1-.123-.778v-2.734h-2.01c-1.095 0-2.069-.471-2.54-1.346-.525-.972-.615-2.458-1.914-3.368-.385-.302-.092-.648.352-.601.82.232 1.5.795 2.14 1.63.637.835.937 1.025 2.128 1.025.577 0 1.441-.034 2.255-.162.437-1.11 1.193-2.133 2.117-2.616-5.328-.548-7.87-3.198-7.87-6.797 0-1.55.66-3.048 1.78-4.31-.367-1.254-.83-3.81.142-4.783 2.397 0 3.847 1.554 4.195 1.974A12 12 0 0 1 29.66 21c1.381 0 2.699.232 3.896.644.344-.417 1.795-1.977 4.197-1.977.976.974.508 3.541.136 4.792 1.115 1.26 1.771 2.754 1.771 4.301 0 3.596-2.539 6.245-7.859 6.796 1.464.764 2.532 2.91 2.532 4.528v3.645c0 .139-.03.239-.046.358C40.52 41.9 45 35.98 45 29c0-8.836-7.164-16-16-16"/></svg>
